apps/web/public/images/services/mattermost.svg

<svg width="24" height="24" viewBox="0 0 24 24" fill="none" xmlns="http://www.w3.org/2000/svg">
<path d="M15.5352 1.11515H15.5109C15.4866 1.13939 15.4623 1.13939 15.4136 1.18788C15.2678 1.33333 14.7573 2.01212 14.7573 2.01212L13.639 3.39394L12.3263 4.9697L10.0897 7.75757C10.0897 7.75757 9.06873 9.04243 9.28752 10.6182C9.50631 12.1939 10.6975 12.9697 11.597 13.2606C12.4964 13.5758 13.9064 13.6727 15.049 12.5576C16.1916 11.4424 16.1429 9.79394 16.1429 9.79394L16.0457 6.2303L15.9728 4.1697L15.9241 2.4C15.9241 2.4 15.9241 1.55152 15.8998 1.33333C15.8998 1.28485 15.8755 1.2606 15.8755 1.23636V1.21212C15.8512 1.16364 15.8026 1.11515 15.7297 1.09091C15.7054 1.09091 15.681 1.06667 15.6324 1.06667C15.6081 1.09091 15.5595 1.09091 15.5352 1.11515ZM11.8887 0C6.92945 0.0484849 2.31055 3.2 0.633161 8.14545C-1.48181 14.4242 1.87297 21.2364 8.14495 23.3697C9.40907 23.8061 10.6975 24 11.9859 24H12.0102C17.0181 24 21.6613 20.8485 23.363 15.8546C25.089 10.7636 23.1928 5.28485 19.0601 2.27879L19.1817 4.82424C21.248 7.10303 22.0746 10.3273 21.0292 13.3818C19.4977 17.9152 14.4412 20.2909 9.7251 18.7152C5.00896 17.1152 2.4321 12.1455 3.98794 7.61212C5.00896 4.55758 7.63444 2.49697 10.6732 1.93939L12.3263 0C12.2533 0 12.1804 0 12.1075 0H11.8887Z" fill="#0058CC"/>
</svg>

<svg width="24" height="24" viewBox="0 0 24 24" fill="none" xmlns="http://www.w3.org/2000/svg"><path d="M15.535 1.115h-.024c-.024.024-.049.024-.097.073-.146.145-.657.824-.657.824L13.64 3.394 12.326 4.97 10.09 7.758s-1.021 1.284-.802 2.86 1.41 2.352 2.309 2.643c.9.315 2.31.412 3.452-.703 1.143-1.116 1.094-2.764 1.094-2.764l-.097-3.564-.073-2.06-.049-1.77s0-.848-.024-1.067c0-.048-.024-.072-.024-.097v-.024a.25.25 0 0 0-.146-.121c-.025 0-.049-.024-.098-.024-.024.024-.072.024-.097.048M11.89 0C6.929.048 2.31 3.2.633 8.145c-2.115 6.28 1.24 13.091 7.512 15.225 1.264.436 2.553.63 3.84.63h.025c5.008 0 9.651-3.151 11.353-8.145 1.726-5.091-.17-10.57-4.303-13.576l.122 2.545c2.066 2.279 2.893 5.503 1.847 8.558-1.531 4.533-6.588 6.909-11.304 5.333-4.716-1.6-7.293-6.57-5.737-11.103 1.021-3.054 3.646-5.115 6.685-5.673L12.326 0z" fill="#0058CC"/></svg>
